logos/hipercard.svg

<?xml version="1.0" encoding="UTF-8"?>
<svg width="512px" height="223px" viewBox="0 0 512 223" version="1.1" xmlns="http://www.w3.org/2000/svg" xmlns:xlink="http://www.w3.org/1999/xlink" preserveAspectRatio="xMidYMid">
	<g>
		<path d="M140.554538,0 L87.4900387,0 C64.043846,1.10858841 44.8782319,10.5521938 39.3443354,30.0263634 C36.4587893,40.1825609 34.8707842,51.3367896 32.6144097,61.8648617 C21.1435851,115.397722 10.9723116,170.404009 0,222.867478 L413.120547,222.867478 C445.058547,222.867478 466.987089,216.118457 472.913967,190.770678 C475.666844,178.995318 478.304139,165.65708 480.938418,152.719863 C491.206178,102.277583 501.482984,51.8383178 512,0 L140.554538,0" fill="#B82126"></path>
		<path d="M353.699639,133.153129 C347.970259,138.762039 331.887435,140.355263 333.532863,126.94789 C334.8992,115.812392 347.022557,113.446149 360.162886,115.054431 C359.186071,121.145224 358.065694,128.879435 353.699639,133.153129 Z M335.600941,89.7164549 C335.053804,92.7884549 334.213522,95.5683137 333.532863,98.5067922 C340.09349,96.8623686 360.52229,91.8186667 362.49098,100.574871 C363.144533,103.484235 362.017129,106.57531 361.197929,108.849192 C342.723765,107.099357 327.666949,110.168345 323.707482,123.327749 C321.055122,132.14218 324.004643,140.816063 329.654714,143.237522 C340.53622,147.898729 353.771922,142.558871 358.35382,135.222212 C357.877961,137.762133 357.4272,140.327153 357.577788,143.495529 L367.144157,143.495529 C367.245553,134.333741 368.578761,126.917773 369.988267,118.673569 C371.189961,111.653145 373.449788,104.702996 373.090384,98.5067922 C372.269176,84.3163608 348.760345,89.3359686 335.600941,89.7164549 Z M431.523639,137.548298 C424.039404,137.708925 420.317867,133.076831 420.1472,125.396831 C419.849035,111.94629 425.749082,97.0029176 437.728878,95.6626824 C443.306667,95.0392471 447.345443,96.3363137 451.432408,97.7317647 C447.680753,112.83978 449.035043,137.172831 431.523639,137.548298 Z M456.344596,66.4465569 C455.391875,74.8011922 454.117898,82.8355765 452.467451,90.4914824 C425.195922,81.8597647 408.470588,101.924141 408.770761,126.688878 C408.829992,131.478588 409.654212,136.228141 412.649914,139.616376 C417.812078,145.455184 432.59382,146.851639 440.055969,141.944471 C441.501616,140.994761 442.97738,139.266008 443.935122,138.066322 C444.653929,137.162792 445.796392,134.799561 446.002196,135.479216 C445.610667,138.104471 445.024376,140.534965 444.969161,143.495529 L455.052549,143.495529 C456.995137,115.618635 463.004612,91.8076235 467.463027,66.4465569 L456.344596,66.4465569 Z M171.67862,133.412141 C165.730384,139.711749 151.107263,139.615373 149.960784,129.015969 C149.460831,124.403953 151.179545,119.568063 152.028863,114.796424 C152.88822,109.966557 153.506635,105.332455 154.354949,101.09189 C160.213835,93.9379451 177.430086,93.0745725 179.17691,104.971043 C180.692831,115.299388 176.604863,128.194761 171.67862,133.412141 Z M180.469961,89.7164549 C171.060204,86.1816471 159.591404,90.4011294 154.619984,94.4148078 C154.637051,94.591498 154.501522,94.6155922 154.354949,94.6286431 C154.440282,94.5573647 154.531639,94.4860863 154.619984,94.4148078 C154.61898,94.399749 154.617976,94.386698 154.613961,94.3706353 C154.69829,92.6438902 155.305663,91.4421961 155.389992,89.7164549 L145.823624,89.7164549 C141.837051,116.239059 137.109584,142.019765 132.120094,167.540455 L143.237522,167.540455 C144.846808,157.600627 145.909961,147.115671 148.150714,137.80731 C150.689631,147.597553 167.268392,145.726243 174.263718,141.944471 C188.699106,134.13898 199.832596,96.9898667 180.469961,89.7164549 Z M233.213992,108.332173 L207.100988,108.332173 C207.927216,102.328722 213.328314,95.7299451 221.837553,95.4046745 C229.846839,95.0984784 235.581239,98.3451608 233.213992,108.332173 Z M222.613584,88.6824157 C214.580204,89.3008314 207.789678,91.6128627 202.963827,96.6967216 C197.044706,102.933082 192.25098,116.719937 193.655467,129.27498 C195.659294,147.186949 217.961412,146.544439 235.800094,142.202478 C236.103278,139.0592 236.864251,136.371702 237.351153,133.412141 C230.002447,136.161882 217.243608,139.999875 209.686086,135.222212 C203.979796,131.614118 203.946667,122.477427 205.807937,114.537412 C217.796769,114.155922 230.257443,114.229208 242.263341,114.537412 C243.025318,108.909427 245.204831,102.773459 243.29738,97.2147451 C240.781553,89.8760784 231.77738,87.9766588 222.613584,88.6824157 Z M124.880816,89.7164549 C124.579639,89.7596235 124.599718,90.125051 124.621804,90.4914824 C122.172235,108.812047 118.857286,126.268235 115.314447,143.495529 L126.431875,143.495529 C129.10331,125.051482 132.163263,106.996957 135.998243,89.7164549 L124.880816,89.7164549 Z M414.977004,89.9744627 C405.15062,85.0622745 396.970667,93.3054745 393.776188,98.2477804 C394.685741,95.7118745 394.737945,92.3166118 395.585255,89.7164549 L385.759875,89.7164549 C383.111529,108.182588 379.917051,126.103592 376.193506,143.495529 L387.569945,143.495529 C387.642227,136.367686 389.041694,131.09509 390.155043,124.10378 C392.533333,109.178478 396.022965,92.8095373 413.425945,97.7317647 C414.0032,95.206902 414.243137,92.3437176 414.977004,89.9744627 Z M290.095184,130.826039 C289.071184,128.178698 288.805145,123.80662 289.061145,120.483639 C289.636392,113.012455 292.358024,103.916925 296.559435,99.7998431 C302.357082,94.1166431 313.802792,95.0573176 322.931451,98.2477804 C323.214557,95.1707608 323.832973,92.4270431 324.224502,89.4584471 C309.252016,87.0128941 295.043514,88.5338353 287.510086,96.4387137 C280.136282,104.176941 275.301396,121.962416 278.718745,133.153129 C282.719373,146.248282 300.653427,146.960063 315.176157,141.944471 C315.817663,139.312188 316.157992,136.377725 316.727216,133.670149 C308.79222,137.793255 293.621961,139.935624 290.095184,130.826039 Z M283.890949,89.7164549 C274.032439,85.734902 266.283169,92.4631843 262.690133,98.7658039 C263.504314,95.961851 263.840627,92.6780235 264.4992,89.7164549 L254.67382,89.7164549 C252.272439,108.34422 248.731608,125.832533 245.366463,143.495529 L256.484894,143.495529 C258.04298,133.010573 258.715608,118.878369 262.17211,108.849192 C264.934902,100.834886 272.165145,94.0072157 282.597898,97.7317647 C282.744471,94.7752157 283.590776,92.5184 283.890949,89.7164549 Z M104.714039,67.9976157 C103.125835,78.3028706 101.336847,88.4073412 99.5428392,98.5067922 C88.0248471,98.6282667 76.2649098,99.0760157 65.1555137,98.2477804 C67.2537098,88.3681882 68.7585882,77.8932706 70.8427294,67.9976157 L58.4332549,67.9976157 C53.989898,93.2030745 49.9491137,118.809098 44.9887373,143.495529 L57.6572235,143.495529 C59.6449882,130.831059 61.5032471,118.038086 64.1204706,106.005082 C74.9226667,105.739043 87.8692392,105.275231 98.2497882,106.264094 C96.1094275,118.774965 93.5233255,130.83909 91.5275294,143.495529 L104.19702,143.495529 C108.266918,117.91862 112.556675,92.5605647 117.641537,67.9976157 L104.714039,67.9976157 Z M136.257255,79.3740549 C138.473914,77.8480941 141.328063,70.8929255 138.067325,67.9976157 C137.03429,67.0810353 135.305537,66.8149961 132.896125,67.2225882 C130.660392,67.6000627 129.374369,68.3590275 128.500957,69.5486745 C127.095467,71.462149 125.808439,77.2306824 127.982933,79.3740549 C130.101208,81.4612078 134.846745,80.3448471 136.257255,79.3740549 L136.257255,79.3740549 Z" fill="#FFFFFF"></path>
	</g>
</svg>

<svg preserveAspectRatio="xMidYMid" viewBox="0 0 512 223" xmlns="http://www.w3.org/2000/svg">
  <path fill="#B82126" d="M140.555 0H87.49C64.044 1.109 44.878 10.552 39.344 30.026c-2.885 10.157-4.473 21.31-6.73 31.839C21.144 115.398 10.972 170.404 0 222.867h413.12c31.939 0 53.867-6.749 59.794-32.096 2.753-11.776 5.39-25.114 8.024-38.051C491.206 102.278 501.483 51.838 512 0H140.555"/>
  <path fill="#FFF" d="M353.7 133.153c-5.73 5.609-21.813 7.202-20.167-6.205 1.366-11.136 13.49-13.502 26.63-11.894-.977 6.091-2.097 13.825-6.463 18.1Zm-18.1-43.437c-.546 3.072-1.386 5.852-2.067 8.79 6.56-1.644 26.99-6.687 28.958 2.069.654 2.91-.474 6-1.293 8.274-18.474-1.75-33.531 1.32-37.49 14.479-2.653 8.814.297 17.488 5.947 19.91 10.881 4.66 24.117-.68 28.699-8.016-.476 2.54-.927 5.105-.776 8.274h9.566c.102-9.162 1.435-16.578 2.844-24.822 1.202-7.02 3.462-13.971 3.102-20.167-.82-14.19-24.33-9.171-37.49-8.79Zm95.924 47.832c-7.485.16-11.206-4.471-11.377-12.151-.298-13.45 5.602-28.394 17.582-29.734 5.578-.624 9.616.673 13.703 2.069-3.751 15.108-2.397 39.44-19.908 39.816Zm24.82-71.101c-.952 8.354-2.226 16.389-3.877 24.044-27.271-8.631-43.996 11.433-43.696 36.198.059 4.79.883 9.54 3.879 12.927 5.162 5.84 19.944 7.236 27.406 2.328 1.446-.95 2.921-2.678 3.88-3.878.718-.903 1.86-3.266 2.066-2.587-.391 2.625-.978 5.056-1.033 8.017h10.084c1.942-27.877 7.952-51.688 12.41-77.05h-11.118ZM171.68 133.412c-5.949 6.3-20.572 6.203-21.718-4.396-.5-4.612 1.219-9.448 2.068-14.22.86-4.83 1.478-9.464 2.326-13.704 5.859-7.154 23.075-8.017 24.822 3.879 1.516 10.328-2.572 23.224-7.498 28.441Zm8.791-43.696c-9.41-3.534-20.879.685-25.85 4.699.017.176-.118.2-.265.214.085-.072.177-.143.265-.214a.233.233 0 0 0-.006-.044c.084-1.727.692-2.929.776-4.655h-9.566c-3.987 26.523-8.714 52.304-13.704 77.824h11.118c1.609-9.94 2.672-20.424 4.913-29.733 2.539 9.79 19.117 7.92 26.113 4.137 14.435-7.805 25.569-44.954 6.206-52.228Zm52.744 18.616h-26.113c.826-6.003 6.227-12.602 14.737-12.927 8.009-.307 13.743 2.94 11.376 12.927Zm-10.6-19.65c-8.034.619-14.824 2.93-19.65 8.015-5.92 6.236-10.713 20.023-9.309 32.578 2.004 17.912 24.306 17.27 42.145 12.927.303-3.143 1.064-5.83 1.551-8.79-7.349 2.75-20.107 6.588-27.665 1.81-5.706-3.608-5.74-12.745-3.878-20.685 11.989-.381 24.45-.308 36.455 0 .762-5.628 2.942-11.764 1.034-17.322-2.515-7.339-11.52-9.238-20.683-8.533Zm-97.733 1.034c-.301.044-.281.41-.26.775-2.449 18.321-5.764 35.777-9.307 53.005h11.118c2.671-18.445 5.731-36.499 9.566-53.78h-11.117Zm290.096.258c-9.826-4.912-18.006 3.331-21.2 8.274.909-2.536.96-5.931 1.808-8.532h-9.825c-2.648 18.467-5.843 36.388-9.566 53.78h11.376c.072-7.128 1.472-12.4 2.585-19.392 2.378-14.926 5.868-31.294 23.27-26.372.578-2.525.818-5.388 1.552-7.758Zm-124.882 40.852c-1.024-2.647-1.29-7.02-1.034-10.342.575-7.472 3.297-16.567 7.498-20.684 5.798-5.683 17.244-4.743 26.372-1.552.284-3.077.902-5.821 1.294-8.79-14.973-2.445-29.181-.924-36.715 6.98-7.374 7.739-12.209 25.524-8.791 36.715 4 13.095 21.934 13.807 36.457 8.791.642-2.632.982-5.566 1.551-8.274-7.935 4.123-23.105 6.266-26.632-2.844Zm-6.204-41.11c-9.859-3.981-17.608 2.747-21.2 9.05.813-2.804 1.15-6.088 1.808-9.05h-9.825c-2.402 18.628-5.942 36.117-9.308 53.78h11.119c1.558-10.485 2.23-24.618 5.687-34.647 2.763-8.014 9.993-14.842 20.426-11.117.146-2.957.993-5.214 1.293-8.016ZM104.714 67.998c-1.588 10.305-3.377 20.41-5.171 30.509-11.518.121-23.278.569-34.387-.26 2.098-9.879 3.603-20.354 5.687-30.25h-12.41c-4.443 25.207-8.483 50.813-13.443 75.5h12.668c1.988-12.665 3.846-25.458 6.463-37.49 10.803-.267 23.75-.73 34.13.258-2.14 12.511-4.727 24.575-6.722 37.232h12.669c4.07-25.577 8.36-50.935 13.445-75.498h-12.928Zm31.543 11.376c2.217-1.526 5.071-8.481 1.81-11.376-1.033-.917-2.761-1.183-5.17-.775-2.237.377-3.523 1.136-4.396 2.326-1.406 1.913-2.693 7.682-.518 9.825 2.118 2.087 6.864.97 8.274 0Z"/>
</svg>
